packages/ffe-icons/icons/filled/md/gps_fixed.svg

<svg xmlns="http://www.w3.org/2000/svg" height="24" viewBox="0 -960 960 960" width="24"><path d="M450.001-102.001v-39.231q-125-12.846-210.462-98.307-85.461-85.462-98.307-210.462h-39.231q-12.75 0-21.374-8.628-8.625-8.629-8.625-21.384 0-12.756 8.625-21.371 8.625-8.615 21.374-8.615h39.231q12.846-125 98.307-210.462 85.462-85.461 210.462-98.307v-39.231q0-12.749 8.628-21.374 8.629-8.625 21.384-8.625 12.756 0 21.371 8.625 8.615 8.625 8.615 21.374v39.231q125 12.846 210.462 98.307 85.461 85.462 98.307 210.462h39.231q12.749 0 21.374 8.628 8.625 8.629 8.625 21.384 0 12.756-8.625 21.371-8.625 8.615-21.374 8.615h-39.231q-12.846 125-98.307 210.462-85.462 85.461-210.462 98.307v39.231q0 12.75-8.628 21.374-8.629 8.625-21.384 8.625-12.756 0-21.371-8.625-8.615-8.625-8.615-21.374ZM480-200q116 0 198-82t82-198q0-116-82-198t-198-82q-116 0-198 82t-82 198q0 116 82 198t198 82Zm0-140.001q-57.749 0-98.874-41.125-41.125-41.125-41.125-98.874 0-57.749 41.125-98.874 41.125-41.125 98.874-41.125 57.749 0 98.874 41.125 41.125 41.125 41.125 98.874 0 57.749-41.125 98.874-41.125 41.125-98.874 41.125Z"/></svg>

<svg xmlns="http://www.w3.org/2000/svg" height="24" viewBox="0 -960 960 960" width="24"><path d="M450-102v-39.23q-125-12.85-210.46-98.31Q154.08-325 141.23-450H102q-12.75 0-21.37-8.63Q72-467.26 72-480.01q0-12.76 8.63-21.37Q89.25-510 102-510h39.23q12.85-125 98.31-210.46Q325-805.92 450-818.77V-858q0-12.75 8.63-21.37 8.63-8.63 21.38-8.63 12.76 0 21.37 8.63Q510-870.75 510-858v39.23q125 12.85 210.46 98.31Q805.92-635 818.77-510H858q12.75 0 21.37 8.63 8.63 8.63 8.63 21.38 0 12.76-8.63 21.37Q870.75-450 858-450h-39.23q-12.85 125-98.31 210.46Q635-154.08 510-141.23V-102q0 12.75-8.63 21.37Q492.74-72 479.99-72q-12.76 0-21.37-8.63Q450-89.25 450-102Zm30-98q116 0 198-82t82-198q0-116-82-198t-198-82q-116 0-198 82t-82 198q0 116 82 198t198 82Zm0-140q-57.75 0-98.87-41.13Q340-422.25 340-480q0-57.75 41.13-98.87Q422.25-620 480-620q57.75 0 98.87 41.13Q620-537.75 620-480q0 57.75-41.13 98.87Q537.75-340 480-340Z"/></svg>
